X: 25
T: Missa [Ad fugam] / Sanctus
N: Derived from Ort1006d-Missa_Ad_fugam-Sanctus.krn
C: Marbrianus de Orto
%%abc-version 2.0
%%abcx-abcm2ps-target-version 5.9.1 (29 Sep 2008)
%%abc-creator hum2abc beta
%%abcx-conversion-date 2019/02/17 07:28:37
%%abc-edited-by Jesse Rodin
%%abc-edited-by Jesse Rodin 8/8/2013
%%abcx-initial-encoding-date 2013/08/09/
%%humdrum-veritas 686317132
%%humdrum-veritas-data 218801043
%%linebreak <none>
%%barnumbers 0
L: 1/4
M: 3/1
Q: 1/2=120
%%staves [1 2 3 4]
V: 1 clef=treble
V: 2 clef=treble-8
V: 3 clef=treble-8
V: 4 clef=bass
K: F
[V:1] G8B4 | 
[V:2] G3AB2c2d4 | 
[V:3] z12 | 
[V:4] G,6C,2G,4 | 
[V:1] A4G8 | 
[V:2] d2c4B2cBAG | 
[V:3] z12 | 
[V:4] F,4_E,4C,4 | 
[V:1] A4c3BG4 | 
[V:2] F3GABc4c2 | 
[V:3] c8_e4 | 
[V:4] z4A,,4C,4 | 
[V:1] F2A4GFE4 | 
[V:2] A4F2E2A4 | 
[V:3] d4c8 | 
[V:4] D,4A,,8 | 
[V:1] D4z2D2E2G2- | 
[V:2] F2B4A4G2- | 
[V:3] d4f3_ec4 | 
[V:4] B,,2G,,2D,4z2_E,2- | 
[V:1] GAB4G4^F2 | 
[V:2] GFD2d2_e2d4 | 
[V:3] B2d4cBA4 | 
[V:4] E,D,B,,4C,2D,4 | 
[V:1] G8z4 | 
[V:2] B3cd2_e2c2G2 | 
[V:3] G4z2G2A2c2- | 
[V:4] G,,3A,,B,,2C,3D,E,2 | 
[V:1] z12 | 
[V:2] A2B4c2d3e | 
[V:3] cd_e4c4B2 | 
[V:4] F,2G,4A,2G,4 | 
[V:1] A12- | 
[V:2] f3ed2c2f3e | 
[V:3] c8z4 | 
[V:4] F,8D,2C,2 | 
[V:1] A8G4 | 
[V:2] c2d3Ad4c2 | 
[V:3] z12 | 
[V:4] F,3E,D,2F,2_E,4 | 
[V:1] F4G2F2G4 | 
[V:2] F4B2A2B2G2 | 
[V:3] d12- | 
[V:4] D,2B,,3C,D,2G,,4 | 
[V:1] F2D3CB,2A,2A2- | 
[V:2] A4G3DF4 | 
[V:3] d8c4 | 
[V:4] D,4z4z4 | 
[V:1] A2G2A2B3GA2 | 
[V:2] G4F2G2F4 | 
[V:3] B4c2B2c4 | 
[V:4] z4z4z2F,2 | 
[V:1] D4G4F4 | 
[V:2] z2B4c2A4 | 
[V:3] B2G3F_E2D2d2- | 
[V:4] G,3F,E,D,C,2D,4 | 
[V:1] E4z2G4F2 | 
[V:2] z4B4c2A2 | 
[V:3] d2c2d2_e3cd2 | 
[V:4] A,4G,4z2D,2 | 
[V:1] G2D2z4z2G2- | 
[V:2] z2D2E2F2G4 | 
[V:3] G4c4B4 | 
[V:4] C,2B,,2A,,4G,,4 | 
[V:1] G2F2G2E2D4 | 
[V:2] D4z4z4 | 
[V:3] A4z2c4B2 | 
[V:4] z2D,2C,4G,4 | 
[V:1] C2D4F2E4 | 
[V:2] z2B2d4G4 | 
[V:3] c2G2z4z2c2- | 
[V:4] A,2B,4B,,2C,4 | 
[V:1] D4z2F2G2A2- | 
[V:2] G6F2Bcd2- | 
[V:3] c2B2c2A2G4 | 
[V:4] G,,4C,2D,2_E,2D,2- | 
[V:1] A2B4G4^F2 | 
[V:2] d2d2d8 | 
[V:3] F2G4B2A4 | 
[V:4] D,C,B,,A,,G,,4D,4 | 
[V:1] G8z4 | 
[V:2] B2c2B2G3AB2- | 
[V:3] G4z2B2c2d2- | 
[V:4] _E,4E,6D,2 | 
[V:1] B4c3BA2GF | 
[V:2] B2G2G4F4 | 
[V:3] d2_e4c4=B2 | 
[V:4] G,4C,4D,4 | 
[V:1] E2A4G2F2G2- | 
[V:2] G2FGABc2A2G2 | 
[V:3] c8z4 | 
[V:4] C,2F,3E,C,2D,2_E,2 | 
[V:1] G2c3BA2B2AG | 
[V:2] c6d2G2d2- | 
[V:3] _e4f3_ed2cB | 
[V:4] C,4F,,4G,,4 | 
[V:1] F12 ||  
[V:2] d12 ||  
[V:3] A12 ||  
[V:4] D,12 ||  
[V:1]  [K:F] [K:clef=treble][M:3/1]D6F4G2 | 
[V:2]  [K:F] [K:clef=treble-8][M:3/1]z12 | 
[V:3]  [K:F] [K:clef=treble-8][M:3/1]z12 | 
[V:4]  [K:F] [K:clef=bass][M:3/1]z12 | 
[V:1] E2D2G4z2A2- | 
[V:2] z12 | 
[V:3] G6B4c2 | 
[V:4] z12 | 
[V:1] A2B2A2G2B2A2 | 
[V:2] z12 | 
[V:3] A2G2c4z2d2- | 
[V:4] z12 | 
[V:1] z2G2A4G2F2 | 
[V:2] z12 | 
[V:3] d2_e2d2c2_e2d2 | 
[V:4] z12 | 
[V:1] E4D2CB,A,2G,2- | 
[V:2] z12 | 
[V:3] z2c2d4c2B2 | 
[V:4] z12 | 
[V:1] G,2C2B,2D4E2 | 
[V:2] z12 | 
[V:3] A4G2F_ED2C2- | 
[V:4] z12 | 
[V:1] C2z2G3AB2c2- | 
[V:2] z12 | 
[V:3] C2F2_E2G4A2 | 
[V:4] z12 | 
[V:1] c2A2G4z2c2- | 
[V:2] z12 | 
[V:3] F2z2c3d_e2f2- | 
[V:4] z12 | 
[V:1] c2B4A2B2A2 | 
[V:2] z12 | 
[V:3] f2d2c4z2f2- | 
[V:4] z12 | 
[V:1] z2G4B3AF2- | 
[V:2] z12 | 
[V:3] f2_e4d2_e2d2 | 
[V:4] z12 | 
[V:1] FGA2G4z2D2 | 
[V:2] z12 | 
[V:3] z2c4_e3dB2- | 
[V:4] z12 | 
[V:1] F4E3DE4 | 
[V:2] z12 | 
[V:3] Bcd2c4z2G2 | 
[V:4] z12 | 
[V:1] D2G2F2G4^F2 | 
[V:2] z12 | 
[V:3] B4A3GA4 | 
[V:4] z12 | 
[V:1] G12 ||  
[V:2] z12 ||  
[V:3] G12 ||  
[V:4] z12 ||  
[V:1]  [K:F] [K:clef=treble][M:3/1]z12 | 
[V:2]  [K:F] [K:clef=treble-8][M:3/1]G4G2B4A2 | 
[V:3]  [K:F] [K:clef=treble-8][M:3/1]z12 | 
[V:4]  [K:F] [K:clef=bass][M:3/1]z4z4D,4 | 
[V:1] z12 | 
[V:2] B2A2d4z2f2- | 
[V:3] z12 | 
[V:4] D,2F,4G,2E,2D,2 | 
[V:1] z12 | 
[V:2] f2e2f2e2f4 | 
[V:3] z12 | 
[V:4] G,4z2A,4B,2 | 
[V:1] z12 | 
[V:2] z2g4f2g2e2 | 
[V:3] z12 | 
[V:4] A,2G,2B,2A,2z2G,2 | 
[V:1] z12 | 
[V:2] f2e4d4c2 | 
[V:3] z12 | 
[V:4] A,4G,2F,2E,4 | 
[V:1] z12 | 
[V:2] B2AGF2G4^F2 | 
[V:3] z12 | 
[V:4] D,2C,B,,A,,2G,,2A,,4 | 
[V:1] z12 | 
[V:2] G4z4G4- | 
[V:3] z12 | 
[V:4] z2G,,4B,,4A,,G,, | 
[V:1] z12 | 
[V:2] G2B4c2A2G2 | 
[V:3] z12 | 
[V:4] C,2B,,2_E,4z2E,2- | 
[V:1] z12 | 
[V:2] c4z2d4_e2 | 
[V:3] z12 | 
[V:4] E,2D,C,_E,2F,2G,4- | 
[V:1] z12 | 
[V:2] d2c2_e2d4c2 | 
[V:3] z12 | 
[V:4] G,2A,2G,4F,3E, | 
[V:1] z12 | 
[V:2] d4c2B2A2d2- | 
[V:3] z12 | 
[V:4] D,C,B,,2A,,2G,,2D,3E, | 
[V:1] z12 | 
[V:2] def2edg4^f2 | 
[V:3] z12 | 
[V:4] F,G,D,2G,2B,2A,4 | 
[V:1] z12 ||  
[V:2] g12 ||  
[V:3] z12 ||  
[V:4] G,12 ||  
[V:1]  [K:F] [K:clef=treble][M:3/1]z12 | 
[V:2]  [K:F] [K:clef=treble-8][M:3/1]G4B4c4 | 
[V:3]  [K:F] [K:clef=treble-8][M:3/1]z12 | 
[V:4]  [K:F] [K:clef=bass][M:3/1]G,8A,4 | 
[V:1] z12 | 
[V:2] d8c3d | 
[V:3] z12 | 
[V:4] G,4B,4A,4 | 
[V:1] G8A4 | 
[V:2] _e2d4c2d4 | 
[V:3] z12 | 
[V:4] G,3F,E,4D,4 | 
[V:1] G4B4A4 | 
[V:2] B2c2d2g4^f2 | 
[V:3] z12 | 
[V:4] z2C,2B,,3C,D,4 | 
[V:1] G4z2c4B2 | 
[V:2] g4G4G3D | 
[V:3] c8d4 | 
[V:4] z2C,4B,,A,,G,,4 | 
[V:1] A2G4c4B2 | 
[V:2] F2E2C4G3F | 
[V:3] c4_e4d4 | 
[V:4] z12 | 
[V:1] c6BAG4 | 
[V:2] G2A4A2c4 | 
[V:3] c4z2f4_e2 | 
[V:4] C,4F,4C,4 | 
[V:1] z12 | 
[V:2] A4G2F2G3A | 
[V:3] d2c4f4_e2 | 
[V:4] F,4E,2D,2C,4 | 
[V:1] z12 | 
[V:2] B2c2d2B4A2 | 
[V:3] f6_edc4 | 
[V:4] B,,2A,,2B,,4z2F,2 | 
[V:1] z12 | 
[V:2] B2d2cBAGF2G2 | 
[V:3] z12 | 
[V:4] G,2B,2A,2C3B,A,G, | 
[V:1] C3DE2D2C2D2- | 
[V:2] A4G4z4 | 
[V:3] z12 | 
[V:4] F,4G,3F,E,2D,2 | 
[V:1] D2C2D3EFGA2- | 
[V:2] g4f2d3ef2- | 
[V:3] z12 | 
[V:4] _E,4B,,3C,D,4 | 
[V:1] ABc4B2A2G2 | 
[V:2] fec4d4B2 | 
[V:3] F3GA2G2F2G2- | 
[V:4] z12 | 
[V:1] z2c2B2d3cB2 | 
[V:2] A4GABcd3e | 
[V:3] G2F2G3ABcd2- | 
[V:4] z4z2G,4G,2 | 
[V:1] A4z4A4 | 
[V:2] f4g4f3e | 
[V:3] d_ef4_e2d2c2 | 
[V:4] F,2D,2C,4F,4- | 
[V:1] A4G8 | 
[V:2] d2c4_e3dcB | 
[V:3] z2f2_e2g3f_e2 | 
[V:4] F,4C,4C,4 | 
[V:1] F2D4B,3CDE | 
[V:2] AGFED2G2F2D2- | 
[V:3] d4z4d4 | 
[V:4] D,3C,B,,A,,G,,2B,,3C, | 
[V:1] FGA4GFE4 | 
[V:2] D2D3EFGA2G2- | 
[V:3] d4c8 | 
[V:4] D,E,F,4F,2C,4 | 
[V:1] D4B4c3B | 
[V:2] G2d4g4g2- | 
[V:3] B2G4_E3FGA | 
[V:4] G,,4G,4C,4 | 
[V:1] G2B2A2G4^F2 | 
[V:2] g2d2f2e2d4- | 
[V:3] Bcd4cBA4 | 
[V:4] G,4F,2G,2D,4 | 
[V:1] G12 ||  
[V:2] d12 ||  
[V:3] G12 ||  
[V:4] G,,12 ||  
[V:1]  [K:F] [K:clef=treble][M:2/1]z8 | 
[V:2]  [K:F] [K:clef=treble-8][M:2/1]z8 | 
[V:3]  [K:F] [K:clef=treble-8][M:2/1]z8 | 
[V:4]  [K:F] [K:clef=bass][M:2/1]G,,6A,,2 | 
[V:1] z8 | 
[V:2] z4G4 | 
[V:3] z8 | 
[V:4] B,,4C,4 | 
[V:1] z8 | 
[V:2] B4c4 | 
[V:3] z8 | 
[V:4] D,2_E,4D,C, | 
[V:1] z8 | 
[V:2] d4B2c2- | 
[V:3] z8 | 
[V:4] B,,4_E,4 | 
[V:1] z8 | 
[V:2] c2d2G2d2- | 
[V:3] z8 | 
[V:4] F,2B,,2C,2B,,2 | 
[V:1] z4F4 | 
[V:2] d2cBA2B2- | 
[V:3] z8 | 
[V:4] G,,4D,4 | 
[V:1] G4F2G2- | 
[V:2] B2AGd4 | 
[V:3] z4B4 | 
[V:4] z8 | 
[V:1] G2A2B2G2 | 
[V:2] z8 | 
[V:3] c4B2c2- | 
[V:4] z2F,2G,2E,2 | 
[V:1] A4G4 | 
[V:2] z4z2c2- | 
[V:3] c2d2_e2c2 | 
[V:4] F,4C,4 | 
[V:1] z8 | 
[V:2] c2B2c2A2 | 
[V:3] d4c4 | 
[V:4] z2G,2A,2F,2 | 
[V:1] z8 | 
[V:2] G4F2f2- | 
[V:3] z8 | 
[V:4] G,2E,2D,4 | 
[V:1] z8 | 
[V:2] f2e2f2d2 | 
[V:3] z8 | 
[V:4] G,4F,2G,2- | 
[V:1] z4G4 | 
[V:2] e4d4 | 
[V:3] z8 | 
[V:4] G,2A,2B,2A,G, | 
[V:1] A4G2A2- | 
[V:2] z8 | 
[V:3] z4c4 | 
[V:4] F,4z4 | 
[V:1] A2B2c2A2 | 
[V:2] z8 | 
[V:3] d4c2d2- | 
[V:4] z2G,2A,2F,2 | 
[V:1] B4A4 | 
[V:2] z2G2A2F2 | 
[V:3] d2_e2f2d2 | 
[V:4] G,4D,4 | 
[V:1] z2G2F2D2 | 
[V:2] G3AB4 | 
[V:3] _e4d4 | 
[V:4] C,4z2B,,2 | 
[V:1] E4D2G2- | 
[V:2] G2A2d2c2 | 
[V:3] z2c2B2G2 | 
[V:4] C,2A,,2B,,2_E,2 | 
[V:1] G2^F2G4 | 
[V:2] d4B2c2 | 
[V:3] A4G2c2- | 
[V:4] D,4_E,2C,2 | 
[V:1] z4G4 | 
[V:2] d4_e4 | 
[V:3] c2=B2c4 | 
[V:4] G,4C,4 | 
[V:1] A6A2 | 
[V:2] c4f4- | 
[V:3] z4c4 | 
[V:4] F,6F,2 | 
[V:1] A4z2B2- | 
[V:2] f2f2B4 | 
[V:3] d6d2 | 
[V:4] D,4G,4 | 
[V:1] B2A2G2c2- | 
[V:2] G2F2c4 | 
[V:3] d4z2_e2- | 
[V:4] z8 | 
[V:1] c2B2A4 | 
[V:2] z8 | 
[V:3] e2d2c2f2- | 
[V:4] z4F,3E, | 
[V:1] z8 | 
[V:2] z2G3AB2 | 
[V:3] f2_e2d4 | 
[V:4] D,2C,4B,,2 | 
[V:1] z8 | 
[V:2] c4F4 | 
[V:3] z8 | 
[V:4] A,,4z2B,,2- | 
[V:1] z8 | 
[V:2] G2A2D2E2- | 
[V:3] z8 | 
[V:4] B,,2A,,2G,,2C,2- | 
[V:1] z8 | 
[V:2] EFG4c2- | 
[V:3] z8 | 
[V:4] C,2B,,2A,,4 | 
[V:1] z8 | 
[V:2] c2B2A4 | 
[V:3] z8 | 
[V:4] G,,2G,4^F,2 | 
[V:1] z8 | 
[V:2] z4d3c | 
[V:3] z8 | 
[V:4] G,2C,2B,,2_E,2- | 
[V:1] z8 | 
[V:2] c2B2_e4 | 
[V:3] z8 | 
[V:4] E,2D,2C,4 | 
[V:1] z8 | 
[V:2] d3cA2B2- | 
[V:3] z8 | 
[V:4] B,,2F,4E,2 | 
[V:1] z8 | 
[V:2] B2_e4d2- | 
[V:3] z8 | 
[V:4] D,2G,3F,D,2 | 
[V:1] z4z2F2- | 
[V:2] d2c2d2cB | 
[V:3] z8 | 
[V:4] _E,4D,4 | 
[V:1] F2E2D2G2- | 
[V:2] A4B2d2- | 
[V:3] z4z2B2- | 
[V:4] z2C,2B,,2G,,2 | 
[V:1] G2F2E4 | 
[V:2] d2c2c4 | 
[V:3] B2A2G2c2- | 
[V:4] z4C,4 | 
[V:1] D2G4F2 | 
[V:2] z2G2d4 | 
[V:3] c2B2A4 | 
[V:4] G,4D,4 | 
[V:1] G2A2D4 | 
[V:2] z4z2G2- | 
[V:3] G2c4B2 | 
[V:4] G,2F,2G,4 | 
[V:1] E2F2G4 | 
[V:2] GAB4c2 | 
[V:3] c2d2G4 | 
[V:4] C,2B,,2_E,4 | 
[V:1] F8 ||  
[V:2] d8 ||  
[V:3] A8 ||  
[V:4] D,8 ||  



